X: 1
T: Last Night's Joy
M: 4/4
L: 1/8
R: reel
K: Dmix
A2AG FGAB | cG(3GGG EG (3GGG | ~AAAG FGAB | cdeg fdec |
(3AAAAG FGAB | cG(3GGG EG (3GGG | ~AAAG FGAB | cdeg fdd2 :|
(3ddd fd adfd | (3ccc ec gcec |(3ddd fd adfd |ceag fdec |
(3ddd fd adfd | (3ccc ec g2fg | af (3gfe fdeB | cdeg fdec :|
